X:1
T:Leytonstone, 87.87 D
T:Leytonstone, 87.87 D
T:John Samuel Hendricks, 1895
T:Public Domain Courtesy of the Cyber Hymnal™
C:John Samuel Hendricks, 1895
Z:Public Domain
Z:Courtesy of the Cyber Hymnal™
%%score 1 2
L:1/8
Q:1/4=110
M:4/4
K:Ab
V:1 treble 
V:2 bass 
V:1
 [CE]2 | [Ec]3 [Ec] [=D=B]2 [Ec]2 | [CA]4 [CE]2 [CE]2 | [DF]2 [FA]2 [Fd]2 [DF]2 | [CE]6 [CE]2 | %5
 [EA]3 [EA] [EB]2 [_Gc]2 | [_Ge]2 [Fd]4 [Ac]2 | [GB]3 [GB] [Ac]2 [A=d]2 | [Ge]6 [Ge]2 | %9
 [Ae]3 [Ed] [Ec]2 [=EA]2 | [FA]4 [DF]2 [DF]2 | [CE]2 [EA]2 [Ec]2 [EA]2 | [EB]6 [DE]2 | %13
 [CA]3 [EA] [EB]2 [_Gc]2 | [_Ge]2 [Fd]4 [FB]2 | [EA]3 [CE] [Ec]2 [DB]2 | [CA]6 |] %17
V:2
 [A,,A,]2 | [A,,A,]3 [A,,A,] [A,,A,]2 [A,,A,]2 | [A,,E,]4 [A,,A,]2 [A,,A,]2 | %3
 [D,A,]2 [D,A,]2 [D,A,]2 [D,A,]2 | [A,,A,]6 [A,,A,]2 | [A,,C]3 [C,A,] [B,,G,]2 [A,,A,]2 | %6
 [D,A,]2 [D,A,]4 [A,,E]2 | [B,,E]3 [B,,B,] [B,,B,]2 [B,,B,]2 | [E,B,]6 [E,D]2 | %9
 [A,,C]3 [B,,B,] [C,A,]2 [C,A,]2 | [D,A,]4 [D,A,]2 [D,A,]2 | [A,,A,]2 [A,,C]2 [A,,A,]2 [C,A,]2 | %12
 [E,G,]6 [E,B,]2 | [A,,A,]3 [C,A,] [B,,G,]2 [A,,A,]2 | [D,A,]2 [D,A,]4 [D,D]2 | %15
 [E,C]3 [E,A,] [E,A,]2 [E,G,]2 | [A,,A,]6 |] %17

